dist/images/guidance.svg

<svg width="64" height="64" viewBox="0 0 64 64" fill="none" xmlns="http://www.w3.org/2000/svg">
<g clip-path="url(#clip0)">
<path d="M42.4433 6.68087C42.7558 6.68087 43.0688 6.56425 43.3115 6.33012C43.8081 5.8505 43.822 5.05937 43.3425 4.56262L43.3391 4.55912C42.8596 4.06275 42.07 4.05025 41.5732 4.53C41.0766 5.0095 41.0645 5.8025 41.544 6.29912C41.7892 6.55325 42.1161 6.68087 42.4433 6.68087Z" fill="white"/>
<path d="M61.9095 41.1979L51.5841 33.8921C51.2025 33.6224 50.7026 33.5879 50.2876 33.8023C49.8727 34.017 49.6121 34.4451 49.6121 34.9124V37.8398H36.3664V32.3573C39.0801 31.611 41.5677 30.1676 43.6116 28.1169C48.4705 23.2418 49.788 15.7689 46.89 9.52138C46.5995 8.89525 45.8568 8.623 45.2301 8.9135C44.6039 9.20388 44.3316 9.947 44.6222 10.5734C47.028 15.7598 46.0086 21.9399 42.1031 26.0788C41.476 23.574 39.9338 21.3675 37.7725 19.9176C38.6975 18.697 39.2479 17.1763 39.2479 15.5285C39.2479 11.522 35.9958 8.2625 31.9984 8.2625C28.0029 8.2625 24.7523 11.5221 24.7523 15.5285C24.7523 17.1759 25.3021 18.6964 26.2262 19.9168C24.0642 21.3671 22.5214 23.5739 21.8939 26.0785C16.7296 20.6134 16.818 11.952 22.1593 6.593C26.0963 2.643 31.9827 1.42663 37.1561 3.49475C37.7964 3.75113 38.5244 3.43925 38.7808 2.79813C39.0371 2.15713 38.7253 1.42975 38.0841 1.17363C31.9799 -1.26662 25.0337 0.167752 20.3886 4.82838C13.9874 11.2509 13.9875 21.6983 20.3886 28.1168C20.9069 28.6368 21.4542 29.1168 22.026 29.5571C22.058 29.5841 22.0914 29.6098 22.126 29.6336C23.7832 30.8903 25.646 31.81 27.6304 32.3561V37.8395H14.3879V34.9125C14.3879 34.4453 14.1272 34.017 13.7124 33.8024C13.2975 33.5876 12.7975 33.6224 12.4159 33.8923L2.0905 41.198C1.7595 41.4323 1.5625 41.8126 1.5625 42.2183C1.5625 42.6239 1.75913 43.0043 2.09025 43.2386L12.4156 50.5479C12.7971 50.8179 13.2972 50.8526 13.7122 50.6379C14.1272 50.4231 14.3879 49.995 14.3879 49.5278V46.5969H27.6301V51.1405H24.7167C24.2502 51.1405 23.8226 51.4003 23.6075 51.8143C23.3924 52.2281 23.4259 52.7274 23.694 53.1091L30.9755 63.469C31.2095 63.802 31.5911 64.0003 31.9981 64.0003H31.9982C32.4052 64.0003 32.7867 63.8021 33.0209 63.4693L40.3058 53.1094C40.574 52.7276 40.6075 52.2285 40.3925 51.8144C40.1774 51.4004 39.7496 51.1405 39.2831 51.1405H36.3662V46.5969H49.6121V49.5278C49.6121 49.995 49.8727 50.4233 50.2878 50.6379C50.7029 50.8528 51.2029 50.8179 51.5844 50.5479L61.9098 43.2386C62.2408 43.0043 62.4375 42.6239 62.4375 42.2183C62.4375 41.8126 62.2406 41.4321 61.9095 41.1979ZM31.9982 10.7624C34.6171 10.7624 36.7477 12.9004 36.7477 15.5286C36.7477 18.1586 34.6171 20.2983 31.9982 20.2983C29.3811 20.2983 27.2521 18.1586 27.2521 15.5286C27.2523 12.9005 29.3812 10.7624 31.9982 10.7624ZM24.1061 27.9824C24.3136 25.349 25.8314 22.9759 28.1349 21.6741C29.2541 22.3848 30.5786 22.7981 31.9982 22.7981C33.4184 22.7981 34.7433 22.385 35.8629 21.6745C38.1664 22.9756 39.684 25.3496 39.8906 27.9846C37.5869 29.5828 34.8592 30.4436 32 30.4436C29.1395 30.4436 26.4107 29.582 24.1061 27.9824ZM52.1121 47.1111V45.3468C52.1121 44.6565 51.5524 44.0969 50.8621 44.0969H35.1164C34.4261 44.0969 33.8664 44.6565 33.8664 45.3468V52.3903C33.8664 53.0805 34.4261 53.6401 35.1164 53.6401H36.8763L31.9986 60.5766L27.1232 53.6401H28.8803C29.5705 53.6401 30.1303 53.0805 30.1303 52.3903V45.3468C30.1303 44.6565 29.5705 44.0969 28.8803 44.0969H13.1379C12.4476 44.0969 11.8879 44.6565 11.8879 45.3468V47.1111L4.97625 42.2185L11.8879 37.3281V39.0898C11.8879 39.78 12.4476 40.3396 13.1379 40.3396H28.8801C29.5704 40.3396 30.1301 39.78 30.1301 39.0898V32.8373C30.7466 32.907 31.3705 32.9435 32 32.9435C32.6284 32.9435 33.251 32.9071 33.8664 32.8378V39.0898C33.8664 39.78 34.4261 40.3396 35.1164 40.3396H50.8623C51.5525 40.3396 52.1123 39.78 52.1123 39.0898V37.3281L59.0239 42.2185L52.1121 47.1111Z" fill="white"/>
</g>
<defs>
<clipPath id="clip0">
<rect width="64" height="64" fill="white"/>
</clipPath>
</defs>
</svg>

<svg width="64" height="64" fill="none" xmlns="http://www.w3.org/2000/svg"><g clip-path="url(#clip0)" fill="#fff"><path d="M42.443 6.68a1.25 1.25 0 00.9-2.118l-.004-.003a1.248 1.248 0 00-1.766-.029 1.252 1.252 0 00.87 2.15z"/><path d="M61.91 41.198l-10.326-7.306a1.251 1.251 0 00-1.972 1.02v2.928H36.366v-5.483a16.319 16.319 0 007.246-4.24c4.858-4.875 6.176-12.348 3.278-18.596a1.25 1.25 0 10-2.268 1.052c2.406 5.187 1.387 11.367-2.519 15.506a10.503 10.503 0 00-4.33-6.161 7.244 7.244 0 001.475-4.39c0-4.006-3.252-7.266-7.25-7.266-3.995 0-7.246 3.26-7.246 7.266a7.25 7.25 0 001.474 4.389 10.508 10.508 0 00-4.332 6.161c-5.164-5.465-5.076-14.126.265-19.485a13.875 13.875 0 0114.997-3.098 1.25 1.25 0 00.928-2.321A16.372 16.372 0 0020.39 4.828c-6.402 6.423-6.401 16.87 0 23.289a16.672 16.672 0 001.737 1.517 16.22 16.22 0 005.504 2.722v5.483H14.388v-2.926a1.25 1.25 0 00-1.972-1.02L2.09 41.197a1.25 1.25 0 000 2.04l10.325 7.31a1.25 1.25 0 001.972-1.02v-2.931H27.63v4.544h-2.913a1.25 1.25 0 00-1.023 1.968l7.282 10.36a1.25 1.25 0 002.045 0l7.285-10.36a1.25 1.25 0 00-1.023-1.968h-2.917v-4.544h13.246v2.93a1.25 1.25 0 001.972 1.02L61.91 43.24a1.25 1.25 0 000-2.041zM31.998 10.762c2.62 0 4.75 2.138 4.75 4.767 0 2.63-2.13 4.77-4.75 4.77-2.617 0-4.746-2.14-4.746-4.77 0-2.629 2.13-4.767 4.746-4.767zm-7.892 17.22a7.986 7.986 0 014.029-6.308 7.183 7.183 0 003.863 1.124 7.19 7.19 0 003.865-1.123 7.982 7.982 0 014.028 6.31A13.781 13.781 0 0132 30.444c-2.86 0-5.59-.862-7.894-2.462zm28.006 19.13v-1.765c0-.69-.56-1.25-1.25-1.25H35.116c-.69 0-1.25.56-1.25 1.25v7.043c0 .69.56 1.25 1.25 1.25h1.76L32 60.577l-4.876-6.937h1.757c.69 0 1.25-.56 1.25-1.25v-7.043c0-.69-.56-1.25-1.25-1.25H13.138c-.69 0-1.25.56-1.25 1.25v1.764L4.976 42.22l6.912-4.89v1.76c0 .691.56 1.25 1.25 1.25H28.88c.69 0 1.25-.559 1.25-1.25v-6.252a16.64 16.64 0 003.736 0v6.253c0 .69.56 1.25 1.25 1.25h15.746c.69 0 1.25-.56 1.25-1.25v-1.762l6.912 4.89-6.912 4.893z"/></g><defs><clipPath id="clip0"><path fill="#fff" d="M0 0h64v64H0z"/></clipPath></defs></svg>
